X:183
T: AM ROSENHUEGEL HON ICH MICH EMPOR
N: B0670
O: Europa, Mitteleuropa, Deutschland, Koeln; Meurs
R: Moral - Lied
M: 4/4
L: 1/8
K: D
AAG | F3FEFGE | D4z
DEF | A3GFFBA | E4z
ABc | d3AeecA | Afd2z2
D2 | D3FBAEF | D4z

